X: 1
T: Camping With Roosters
M: 4/4
L: 1/8
R: reel
K: Amaj
|:ceed eecA|BAAG ABcd|ceed eecA|BAAG A2 E2|
ceed eecA|BAAG ABcd|eaga fedc|BAAG A4:|
|:&quot;Cock a doodle doo!&quot;eaag a2 e2|=cBAc BA B2|=c2 cA EA c2|BAAG A4|
&quot;Cock a doodle doo!&quot;eaag a2 e2|=cBAc BA B2|eaga fedc|BAAG A4:|
